src/48x48/places/folder-gruvbox-mix-green-dropbox.svg

<?xml version="1.0" encoding="UTF-8"?>
<svg width="48" height="48" version="1" xmlns="http://www.w3.org/2000/svg">
 <rect x="4" y="17" width="40" height="26" rx="2" ry="2" opacity=".2"/>
 <path d="m4 34c0 1.108 0.892 2 2 2h36c1.108 0 2-0.892 2-2v-22c0-1.108-0.892-2-2-2h-18c-3 0-4-4-7-4h-11c-1.108 0-2 0.892-2 2" fill="#72761e"/>
 <rect x="4" y="15" width="40" height="26" rx="2" ry="2" opacity=".2"/>
 <rect x="6" y="13" width="36" height="16" rx="2" ry="2" fill="#dee2b6"/>
 <rect x="4" y="16" width="40" height="26" rx="2" ry="2" fill="#b0b846"/>
 <path d="m6 6c-1.108 0-2 0.892-2 2v1c0-1.108 0.892-2 2-2h11c3 0 4 4 7 4h18c1.108 0 2 0.892 2 2v-1c0-1.108-0.892-2-2-2h-18c-3 0-4-4-7-4z" fill="#dee2b6" opacity=".1"/>
 <path d="m20 21-5 3 4 2.9-4.01 3 5.01 3.1 4-3-5-3 5-3 5 3-5 3 4 3 5.01-3.1-4.01-2.9 4-3-5-3-4 2.9zm4 10-4 3-1-0.6v0.6l5 3 5-3v-0.6l-1 0.6z" fill="#3b4439"/>
</svg>

<svg xmlns="http://www.w3.org/2000/svg" width="48" height="48" version="1">
 <rect style="opacity:0.2" width="40" height="26" x="4" y="17" rx="2" ry="2"/>
 <path style="fill:#72761e" d="M 4,34 C 4,35.108 4.892,36 6,36 H 42 C 43.108,36 44,35.108 44,34 V 12 C 44,10.892 43.108,10 42,10 H 24 C 21,10 20,6 17,6 H 6 C 4.892,6 4,6.892 4,8"/>
 <rect style="opacity:0.2" width="40" height="26" x="4" y="15" rx="2" ry="2"/>
 <rect style="fill:#dee2b6" width="36" height="16" x="6" y="13" rx="2" ry="2"/>
 <rect style="fill:#b0b846" width="40" height="26" x="4" y="16" rx="2" ry="2"/>
 <path style="opacity:0.1;fill:#dee2b6" d="M 6,6 C 4.892,6 4,6.892 4,8 V 9 C 4,7.892 4.892,7 6,7 H 17 C 20,7 21,11 24,11 H 42 C 43.108,11 44,11.892 44,13 V 12 C 44,10.892 43.108,10 42,10 H 24 C 21,10 20,6 17,6 Z"/>
 <path style="fill:#3b4439" d="M 20,21 15,24 19,26.9 14.99,29.9 20,33 24,30 19,27 24,24 29,27 24,30 28,33 33.01,29.9 29,27 33,24 28,21 24,23.9 Z M 24,31 20,34 19,33.4 V 34 L 24,37 29,34 V 33.4 L 28,34 Z"/>
</svg>
